x-pack/platform/packages/shared/kbn-inference-endpoint-ui-common/src/components/providers/assets/images/ibm_watsonx.svg

<svg width="32" height="32" viewBox="0 0 32 32" fill="none" xmlns="http://www.w3.org/2000/svg">
<path fill-rule="evenodd" clip-rule="evenodd" d="M5.83305 10H8.29864e-05L8.29864e-05 10.8333L5.83305 10.8333V10ZM0 11.5898H5.83297V12.4232L0 12.4232L0 11.5898ZM1.66401 13.1796H4.16597V14.0129H1.66401V13.1796ZM4.16597 14.7725H1.66401V15.6058H4.16597V14.7725ZM1.66401 16.3625H4.16597V17.1958H1.66401V16.3625ZM4.16597 17.9522H1.66401V18.7856H4.16597L4.16597 17.9522ZM0 19.542H5.83297V20.3753H0L0 19.542ZM0 21.1346H5.83297V21.965H0L0 21.1346ZM15.6357 20.3756H6.66482V19.5422H15.9685C15.9001 19.8377 15.7872 20.1185 15.6357 20.3756ZM14.9373 16.3627H8.33175V17.1961H15.6356C15.4454 16.8769 15.2107 16.5962 14.9373 16.3627ZM8.33175 15.6063V14.773H15.6356C15.4514 15.0921 15.2166 15.3729 14.9373 15.6063H8.33175ZM15.6357 11.5901H6.66482V12.4234H15.9685C15.8912 12.1279 15.7783 11.8472 15.6357 11.5901ZM6.66482 10.0003H12.8782C13.7042 10.0003 14.4619 10.3195 15.0206 10.8337H6.66482V10.0003ZM10.8307 13.1801H8.33175V14.0134H10.8307V13.1801ZM15.9479 14.0134H13.333V13.1801H16.0608C16.0608 13.4667 16.0222 13.7475 15.9479 14.0134ZM8.33175 17.9522H10.8307V18.7856H8.33175V17.9522ZM13.333 18.7856V17.9522H15.9479C16.0222 18.2182 16.0608 18.4989 16.0608 18.7856H13.333ZM6.66482 21.9594L12.8782 21.9682C13.7102 21.9682 14.4619 21.6491 15.0235 21.1349H6.66482V21.9594ZM20.8329 21.1346H16.6669V21.965H20.8329V21.1346ZM16.6669 19.5422H20.8329V20.3755H16.6669V19.5422ZM20.8329 17.9525H18.3309V18.7858H20.8329V17.9525ZM18.3309 16.3627H20.8329V17.1961H18.3309V16.3627ZM16.6669 11.5898L21.9918 11.5898L22.28 12.4232L16.6669 12.4232V11.5898ZM21.4391 10.0003H16.6669V10.8337L21.7273 10.8337L21.4391 10.0003ZM29.9999 21.1349H25.8309V21.9653H29.9999V21.1349ZM25.8309 19.542H29.9999V20.3753H25.8309V19.542ZM28.3329 17.9525H25.8309V18.7858H28.3329V17.9525ZM25.8309 16.3627H28.3329V17.1961H25.8309V16.3627ZM28.3329 15.6058H25.8309V14.8405L25.5665 15.6058L21.0974 15.6058L20.8329 14.8405V15.6058H18.3309V14.7725H20.8329H23.0972L23.3319 15.4463L23.5667 14.7725L25.8309 14.7725H28.3329V15.6058ZM28.3326 13.1801H24.1191L23.8309 14.0134L28.3326 14.0134V13.1801ZM24.9393 10.8337L25.2275 10.0003H29.9997V10.8337H24.9393ZM23.3322 21.9594L23.6204 21.1349H23.0439L23.3322 21.9594ZM23.8844 20.3753H22.7791L22.4849 19.542H24.1816L23.8844 20.3753ZM22.2176 18.7858H24.4462L24.7403 17.9525H21.9234L22.2176 18.7858ZM25.0077 17.1958H21.6589L21.3707 16.3625H25.293L25.0077 17.1958ZM18.3309 14.0134H22.8327L22.5445 13.1801L18.3309 13.1801V14.0134ZM30.0001 12.4232H24.387L24.6723 11.5898H30.0001V12.4232Z" fill="black"/>
</svg>

<svg xmlns="http://www.w3.org/2000/svg" width="32" height="32" fill="none"><path fill="#000" fill-rule="evenodd" d="M5.833 10H0v.833h5.833zM0 11.59h5.833v.833H0zm1.664 1.59h2.502v.833H1.664zm2.502 1.593H1.664v.833h2.502zm-2.502 1.59h2.502v.833H1.664zm2.502 1.59H1.664v.833h2.502zM0 19.541h5.833v.833H0zm0 1.593h5.833v.83H0zm15.636-.76H6.665v-.833h9.304a3 3 0 0 1-.333.834m-.699-4.012H8.332v.833h7.304q-.287-.482-.699-.833m-6.605-.757v-.833h7.304q-.279.482-.699.833zm7.304-4.016H6.665v.833h9.304a3.6 3.6 0 0 0-.333-.833M6.665 10h6.213c.826 0 1.584.32 2.143.834H6.665zm4.166 3.18h-2.5v.833h2.5zm5.117.833h-2.615v-.833h2.728c0 .287-.039.568-.113.833m-7.616 3.94h2.499v.833h-2.5zm5.001.833v-.834h2.615a3 3 0 0 1 .113.834zm-6.668 3.173 6.213.01c.832 0 1.584-.32 2.146-.834h-8.36zm14.168-.824h-4.166v.83h4.166zm-4.166-1.593h4.166v.833h-4.166zm4.166-1.59H18.33v.834h2.502zm-2.502-1.59h2.502v.834H18.33zm-1.664-4.772h5.325l.288.833h-5.613zM21.439 10h-4.772v.834h5.06zM30 21.135h-4.168v.83H30zm-4.168-1.593H30v.833h-4.17zm2.502-1.59H25.83v.834h2.502zm-2.502-1.59h2.502v.834H25.83zm2.502-.756H25.83v-.765l-.264.765h-4.47l-.264-.765v.765H18.33v-.833h4.766l.235.673.235-.673h4.766zm0-2.426h-4.214l-.288.833h4.502zm-3.394-2.346.288-.834H30v.834zm-1.607 11.125.288-.824h-.576zm.552-1.584H22.78l-.294-.833h1.697zm-1.666-1.59h2.228l.294-.832h-2.817zm2.79-1.59h-3.35l-.287-.832h3.922zm-6.677-3.182h4.502l-.288-.833H18.33zM30 12.423h-5.614l.285-.833H30z" clip-rule="evenodd"/></svg>
